assets/images/menu.svg

<svg xmlns="http://www.w3.org/2000/svg" width="80" height="100" viewBox="0, 0, 80, 100"><path d="M6.509 21.024h66.982c3.595 0 6.509 2.162 6.509 4.829v1.932c0 2.667-2.914 4.829-6.509 4.829H6.509C2.914 32.614 0 30.452 0 27.785v-1.932c0-2.667 2.914-4.829 6.509-4.829zm14.488 23.181c-3.594 0-6.509 2.162-6.509 4.829v1.932c0 2.667 2.915 4.829 6.509 4.829h52.494c3.595 0 6.509-2.162 6.509-4.829v-1.932c0-2.667-2.914-4.829-6.509-4.829H20.997zm0 23.191c-3.594 0-6.509 2.162-6.509 4.829v1.922c0 2.667 2.915 4.829 6.509 4.829h52.494c3.595 0 6.509-2.162 6.509-4.829v-1.922c0-2.667-2.914-4.829-6.509-4.829H20.997z" fill="#444"/></svg>

<?xml version="1.0" encoding="UTF-8"?>
<!DOCTYPE svg PUBLIC "-//W3C//DTD SVG 1.1//EN" "http://www.w3.org/Graphics/SVG/1.1/DTD/svg11.dtd">
<svg version="1.1" xmlns="http://www.w3.org/2000/svg" xmlns:xlink="http://www.w3.org/1999/xlink" x="0" y="0" width="80" height="100" viewBox="0, 0, 80, 100">
  <g id="Layer_1">
    <path d="M6.509,21.024 L73.491,21.024 C77.086,21.024 80,23.186 80,25.853 L80,27.785 C80,30.452 77.086,32.614 73.491,32.614 L6.509,32.614 C2.914,32.614 0,30.452 0,27.785 L0,25.853 C0,23.186 2.914,21.024 6.509,21.024 z M20.997,44.205 C17.403,44.205 14.488,46.367 14.488,49.034 L14.488,50.966 C14.488,53.633 17.403,55.795 20.997,55.795 L73.491,55.795 C77.086,55.795 80,53.633 80,50.966 L80,49.034 C80,46.367 77.086,44.205 73.491,44.205 L20.997,44.205 z M20.997,67.396 C17.403,67.396 14.488,69.558 14.488,72.225 L14.488,74.147 C14.488,76.814 17.403,78.976 20.997,78.976 L73.491,78.976 C77.086,78.976 80,76.814 80,74.147 L80,72.225 C80,69.558 77.086,67.396 73.491,67.396 L20.997,67.396 z" fill="#444"/>
  </g>
</svg>
